assets/icons/supported_selectable_icons/logos/financial_institutions/714.svg

<svg xmlns="http://www.w3.org/2000/svg" width="512" height="512" fill="none"><path fill="#fff" fill-opacity=".58" d="M0 0h512v512H0z"/><g clip-path="url(#a)"><mask id="b" width="332" height="120" x="90" y="196" maskUnits="userSpaceOnUse" style="mask-type:luminance"><path fill="#fff" d="M422 196H90v120h332z"/></mask><g fill-rule="evenodd" clip-rule="evenodd" mask="url(#b)"><path fill="#FAAE29" d="M196.953 216.016h-2.333l.049 11.976h2.914c3.02 0 5.622-2.149 5.622-5.922 0-4.028-2.209-6.054-6.252-6.054m-9.617-14.649h12.661c5.885 0 9.715 1.92 9.715 6.308s-4.788 6.316-7.841 6.824v.41c2.988.123 8.635 1.96 8.635 6.857 0 5.832-5.418 8.203-11.237 8.203h-11.941zm10.059 1.985h-2.619l-.156 10.663h2.455c2.889 0 5.819-1.837 5.819-5.545-.024-2.772-1.473-5.118-5.499-5.118m29.978 15.585-.311.147a17 17 0 0 1-2.169.82q-1.099.33-2.136.821a3.98 3.98 0 0 0-2.308 3.961c0 2.149 1.154 3.404 3.02 3.412 2.3 0 3.896-1.55 3.896-4.371zm-12.333-7.194c2.774-1.64 6.596-2.239 9.616-2.239 5.156 0 8.773 1.862 8.773 6.652v13.829h-5.991q.06-1.165 0-2.329v-.517l-.343.402a7.69 7.69 0 0 1-6.228 2.993c-4.854 0-6.81-2.739-6.81-5.306 0-3.495 2.693-5.012 7.112-5.939 5.427-1.115 6.163-1.468 6.163-3.182 0-2.166-1.899-3.872-4.91-3.872a13.1 13.1 0 0 0-6.507 1.591zm85.466-.738c-3.224 0-5.082 3.281-5.082 9.588 0 4.676 1.162 8.49 5.025 8.498 3.274 0 4.91-3.617 4.91-10.089.032-4.839-1.391-7.997-4.853-8.005zm-.098-1.477c7.472 0 11.827 3.929 11.827 10.106 0 6.726-4.863 10.933-11.835 10.933-5.795 0-11.826-2.739-11.826-10.015 0-7.275 5.729-11.032 11.834-11.032zm-14.65 4.266a8.3 8.3 0 0 0-6.424-2.535c-4.019 0-6.105 3.412-6.114 8.867 0 5.175 2.627 8.112 7.538 8.112a7.92 7.92 0 0 0 5.041-1.854l.917 1.231a13.62 13.62 0 0 1-8.02 2.928c-9.453 0-12.563-5.455-12.563-10.483 0-6.045 4.992-10.556 12.767-10.556 2.839-.06 5.65.579 8.184 1.862zm-39.472-.583h.426a9.19 9.19 0 0 1 7.317-3.699c4.795 0 7.505 2.264 7.505 7.538 0 2.772-.099 10.532 0 12.96h-6.932v-11.877c0-3.511-.95-5.34-3.708-5.34-3.167 0-4.092 2.534-4.092 6.39v10.81h-6.94v-19.948h6.637z"/><path fill="#00A88F" d="M95.355 300.361h83.666v1.689l-83.666-.008zm0 5.421h83.666v5.143H95.355zm0-95.565h83.666v1.69H95.355zm0-8.85h83.699v5.176l-83.699-.033zm220.782 89.684v-1.641c-5.278 0-7.366-1.246-7.366-6.873v-35.073c0-5.635 2.103-6.874 7.366-6.874v-1.64h-31.59v1.64c5.361 0 7.456 1.247 7.456 6.874v35.106c0 5.627-2.104 6.873-7.464 6.873v1.641zm-125.306-26.075c0-17.11 5.287-23.696 12.898-23.688s12.89 6.561 12.882 23.696-5.287 23.696-12.898 23.688c-7.612-.008-12.89-6.586-12.882-23.696m-17.244 0c0 17.774 12.89 26.92 30.126 26.928 17.235.008 30.134-9.137 30.142-26.904.008-17.766-12.882-26.919-30.126-26.928-17.244-.008-30.134 9.13-30.142 26.896zm146.832 26.37h1.701a3.965 3.965 0 0 1 3.652-2.46c1.636 0 10.172 3.075 17.184 3.075 12.278 0 21.443-4.921 21.443-17.175 0-19.965-30.904-16.175-30.895-26.855 0-4.461 3.879-6.561 8.855-6.561 9.002 0 15.991 4.921 18.005 13.173h1.703v-15.544h-1.71c-.156 2.338-.933 3.068-2.561 3.068-2.956 0-6.835-3.954-16.311-3.954-10.247 0-20.895 5.037-20.895 15.864 0 19.16 31.525 15.805 31.525 28.019 0 4.536-4.911 6.725-10.72 6.725-9.322 0-17.474-5.634-19.258-15.223h-1.718zm69.441-19.685h-12.365l6.218-15.355zm-11.187 19.455v-1.64c-4.74 0-6.057-1.386-6.057-3.281.064-1.42.405-2.814 1.006-4.101l2.8-7.53h14.683l3.641 8.703c.486 1.112.778 2.3.859 3.511 0 1.755-1.399 2.706-3.191 2.706h-3.494v1.641h27.965v-1.641c-2.562-.221-3.185-.582-4.584-3.806l-19.641-46.662h-5.434l-17.802 43.472c-2.257 5.487-3.577 6.652-6.76 6.947v1.64zm-112.426-.041v-1.64c-5.36 0-7.455-1.247-7.455-6.874v-16.396c8.388 0 11.801 1.247 12.276 9.958h1.71v-23.082h-1.702c-.475 8.703-3.887 9.942-12.276 9.942v-20.801h9.002c8.07 0 12.277 3.371 13.038 11.122h1.71v-14.338h-47.991v1.641c5.36 0 7.455 1.247 7.455 6.873v35.09c0 5.627-2.103 6.873-7.464 6.873v1.641zM109.865 267.65c2.562 12.992 13.701 20.604 26.411 20.604 7.881 0 14.886-2.969 14.886-9.474 0-4.33-2.815-7.251-6.85-9.58a55 55 0 0 0-6.891-3.191c-2.496-1-5.164-1.968-7.832-3.018-10.737-4.208-21.139-9.449-21.139-22.146 0-14.33 14.093-21.113 27.924-21.113a37.4 37.4 0 0 1 14.216 2.658c1.71.664 3.142 1.337 4.394 1.837 1.094.5 2.271.792 3.47.861 2.374 0 3.536-1.123 3.814-4.158h1.637v20.251h-1.637c-2.864-11.204-12.44-17.824-24.675-17.832-6.793 0-12.358 2.92-12.358 9.285 0 3.831 2.791 6.316 6.736 8.301s9.109 3.543 14.346 5.545c10.468 3.904 20.69 9.293 20.682 22.54 0 16.232-12.129 22.9-28.645 22.892a64 64 0 0 1-14.248-2.075c-2.177-.517-4.092-1.042-5.664-1.427a18.3 18.3 0 0 0-3.322-.664 5.77 5.77 0 0 0-5.197 3.362h-1.711V267.65z"/></g></g><defs><clipPath id="a"><path fill="#fff" d="M90 196h332v120H90z"/></clipPath></defs></svg>

<svg xmlns="http://www.w3.org/2000/svg" width="512" height="512" viewBox="0 0 512 512" fill="none">
<rect width="512" height="512" fill="white" fill-opacity="0.58"/>
<g clip-path="url(#clip0_812_9969)">
<mask id="mask0_812_9969" style="mask-type:luminance" maskUnits="userSpaceOnUse" x="90" y="196" width="332" height="120">
<path d="M422 196H90V316H422V196Z" fill="white"/>
</mask>
<g mask="url(#mask0_812_9969)">
<path fill-rule="evenodd" clip-rule="evenodd" d="M196.953 216.016H194.62L194.669 227.992H197.583C200.603 227.992 203.205 225.843 203.205 222.07C203.205 218.042 200.996 216.016 196.953 216.016ZM187.336 201.367H199.997C205.882 201.367 209.712 203.287 209.712 207.675C209.712 212.063 204.924 213.991 201.871 214.499V214.909C204.859 215.032 210.506 216.869 210.506 221.766C210.506 227.598 205.088 229.969 199.269 229.969H187.328L187.336 201.367ZM197.395 203.352H194.776L194.62 214.015H197.075C199.964 214.015 202.894 212.178 202.894 208.47C202.87 205.698 201.421 203.352 197.395 203.352ZM227.373 218.937L227.062 219.084C226.358 219.406 225.634 219.68 224.893 219.904C224.161 220.124 223.448 220.398 222.757 220.725C222.012 221.065 221.39 221.629 220.976 222.338C220.563 223.048 220.379 223.868 220.449 224.686C220.449 226.835 221.603 228.09 223.469 228.098C225.769 228.098 227.365 226.548 227.365 223.727L227.373 218.937ZM215.04 211.743C217.814 210.103 221.636 209.504 224.656 209.504C229.812 209.504 233.429 211.366 233.429 216.156V229.985H227.438C227.478 229.209 227.478 228.431 227.438 227.656V227.139L227.095 227.541C226.361 228.491 225.415 229.257 224.334 229.777C223.253 230.296 222.066 230.556 220.867 230.534C216.013 230.534 214.057 227.795 214.057 225.228C214.057 221.733 216.75 220.216 221.169 219.289C226.596 218.174 227.332 217.821 227.332 216.107C227.332 213.941 225.433 212.235 222.422 212.235C220.152 212.191 217.91 212.74 215.915 213.826L215.04 211.743ZM300.506 211.005C297.282 211.005 295.424 214.286 295.424 220.593C295.424 225.269 296.586 229.083 300.449 229.091C303.723 229.091 305.359 225.474 305.359 219.002C305.391 214.163 303.968 211.005 300.506 210.997V211.005ZM300.408 209.528C307.88 209.528 312.235 213.457 312.235 219.634C312.235 226.36 307.372 230.567 300.4 230.567C294.605 230.567 288.574 227.828 288.574 220.552C288.574 213.277 294.303 209.52 300.408 209.52V209.528ZM285.758 213.794C284.931 212.935 283.929 212.264 282.821 211.827C281.712 211.39 280.523 211.196 279.334 211.259C275.315 211.259 273.229 214.671 273.22 220.126C273.22 225.301 275.847 228.238 280.758 228.238C282.603 228.226 284.385 227.57 285.799 226.384L286.716 227.615C284.424 229.426 281.613 230.452 278.696 230.543C269.243 230.543 266.133 225.088 266.133 220.06C266.133 214.015 271.125 209.504 278.9 209.504C281.739 209.444 284.55 210.083 287.084 211.366L285.758 213.794ZM246.286 213.211H246.712C247.562 212.069 248.666 211.14 249.936 210.498C251.205 209.856 252.606 209.519 254.029 209.512C258.824 209.512 261.534 211.776 261.534 217.05C261.534 219.822 261.435 227.582 261.534 230.01H254.602V218.133C254.602 214.622 253.652 212.793 250.894 212.793C247.727 212.793 246.802 215.327 246.802 219.183V229.993H239.862V210.045H246.499L246.286 213.211Z" fill="#FAAE29"/>
<path fill-rule="evenodd" clip-rule="evenodd" d="M95.355 300.361H179.021V302.05L95.355 302.042V300.361ZM95.355 305.782H179.021V310.925H95.355V305.782ZM95.355 210.217H179.021V211.907H95.355V210.217ZM95.355 201.367H179.054V206.543L95.355 206.51V201.367ZM316.137 291.051V289.41C310.859 289.41 308.771 288.164 308.771 282.537V247.464C308.771 241.829 310.874 240.59 316.137 240.59V238.95H284.547V240.59C289.908 240.59 292.003 241.837 292.003 247.464V282.57C292.003 288.197 289.899 289.443 284.539 289.443V291.084L316.137 291.051ZM190.831 264.976C190.831 247.866 196.118 241.28 203.729 241.288C211.34 241.296 216.619 247.849 216.611 264.984C216.603 282.119 211.324 288.68 203.713 288.672C196.101 288.664 190.823 282.086 190.831 264.976ZM173.587 264.976C173.587 282.75 186.477 291.896 203.713 291.904C220.948 291.912 233.847 282.767 233.855 265C233.863 247.234 220.973 238.081 203.729 238.072C186.485 238.064 173.595 247.202 173.587 264.968V264.976ZM320.419 291.346H322.12C322.419 290.621 322.925 290 323.574 289.563C324.223 289.125 324.988 288.89 325.772 288.886C327.408 288.886 335.944 291.961 342.956 291.961C355.234 291.961 364.399 287.04 364.399 274.786C364.399 254.821 333.495 258.611 333.504 247.931C333.504 243.47 337.383 241.37 342.359 241.37C351.361 241.37 358.35 246.291 360.364 254.543H362.067V238.999H360.357C360.201 241.337 359.424 242.067 357.796 242.067C354.84 242.067 350.961 238.113 341.485 238.113C331.238 238.113 320.59 243.15 320.59 253.977C320.59 273.137 352.115 269.782 352.115 281.996C352.115 286.532 347.204 288.721 341.395 288.721C332.073 288.721 323.921 283.087 322.137 273.498H320.419V291.346ZM389.86 271.661H377.495L383.713 256.306L389.86 271.661ZM378.673 291.116V289.476C373.933 289.476 372.616 288.09 372.616 286.195C372.68 284.775 373.021 283.381 373.622 282.094L376.422 274.564H391.105L394.746 283.267C395.232 284.379 395.524 285.567 395.605 286.778C395.605 288.533 394.206 289.484 392.414 289.484H388.92V291.125H416.885V289.484C414.323 289.263 413.7 288.902 412.301 285.678L392.66 239.016H387.226L369.424 282.488C367.167 287.975 365.847 289.14 362.664 289.435V291.075L378.673 291.116ZM266.247 291.075V289.435C260.887 289.435 258.792 288.188 258.792 282.561V266.165C267.18 266.165 270.593 267.412 271.068 276.123H272.778V253.041H271.076C270.601 261.744 267.189 262.983 258.8 262.983V242.182H267.802C275.872 242.182 280.079 245.553 280.84 253.304H282.55V238.966H234.559V240.607C239.919 240.607 242.014 241.854 242.014 247.48V282.57C242.014 288.197 239.911 289.443 234.55 289.443V291.084L266.247 291.075ZM109.865 267.65C112.427 280.642 123.566 288.254 136.276 288.254C144.157 288.254 151.162 285.285 151.162 278.78C151.162 274.45 148.347 271.529 144.312 269.2C142.092 267.978 139.789 266.912 137.421 266.009C134.925 265.009 132.257 264.041 129.589 262.991C118.852 258.783 108.45 253.542 108.45 240.845C108.45 226.515 122.543 219.732 136.374 219.732C141.24 219.685 146.068 220.588 150.59 222.39C152.3 223.054 153.732 223.727 154.984 224.227C156.078 224.727 157.255 225.019 158.454 225.088C160.828 225.088 161.99 223.965 162.268 220.93H163.905V241.181H162.268C159.404 229.977 149.828 223.357 137.593 223.349C130.8 223.349 125.235 226.269 125.235 232.634C125.235 236.465 128.026 238.95 131.971 240.935C135.916 242.92 141.08 244.478 146.317 246.48C156.785 250.384 167.007 255.773 166.999 269.02C166.999 285.252 154.87 291.92 138.354 291.912C133.542 291.758 128.763 291.062 124.106 289.837C121.929 289.32 120.014 288.795 118.442 288.41C117.358 288.086 116.245 287.864 115.12 287.746C114.024 287.754 112.954 288.074 112.033 288.67C111.113 289.265 110.381 290.111 109.923 291.108H108.212V267.65H109.865Z" fill="#00A88F"/>
</g>
</g>
<defs>
<clipPath id="clip0_812_9969">
<rect width="332" height="120" fill="white" transform="translate(90 196)"/>
</clipPath>
</defs>
</svg>
